X: 20492
T: John L. Sullivan
R: reel
M: 4/4
K: Dmajor
|:D2 FD ADFD|Addc defa|D2 FD ADFD|EAAB ABce|
D2 FD ADFD|Addc defg|(3agf (3gfe fdef|1 dBAF EGFE:|2 dBAF FE E2||
|:d2 dB AFFF|AFBF AFFF|d2 dB ADFA|Beed egfe|
~d3e ~c3d|BBBA Bcde|fgfe dcBA|1 (3Bcd AF FE E2:|2 (3Bcd AF EGFE||

